X:1
T:Go to Cow with me Johnny. Roose.0327
L:1/8
Q:3/8=118
M:9/8
I:linebreak $
K:D
V:1 treble 
V:1
|: ABA A2 G FED | ABA c2 d e3 | ABA A2 G FGA | fed edc d3 :: ABA fed ecA |$ ABA fed e3 | %6
 ABA fed ecA | dAG F2 c d3 :| %8
